docs/public/images/logo_dark.svg

<svg version="1.1" id="Layer_1" xmlns="http://www.w3.org/2000/svg" xmlns:xlink="http://www.w3.org/1999/xlink" x="0px" y="0px"
	 width="100%" viewBox="0 0 496 496" enable-background="new 0 0 496 496" xml:space="preserve">
<path fill="#ffffff" opacity="1.000000" stroke="none" 
	d="
M66.696335,267.306152 
	C69.786301,246.201523 85.225227,234.111343 108.853996,234.076126 
	C152.184723,234.011520 195.515579,234.047760 238.846390,234.047165 
	C289.510712,234.046478 340.175049,234.035370 390.839386,234.068924 
	C399.687592,234.074799 408.496735,234.328522 416.520142,238.944427 
	C428.252045,245.693863 435.177521,255.616196 435.265137,269.249817 
	C435.504089,306.414490 434.936310,343.588043 435.507324,380.745483 
	C435.836121,402.141724 414.095764,423.214233 388.596558,415.782867 
	C386.531372,415.181030 384.489136,414.500641 382.433044,413.855774 
	C380.616913,415.382263 381.393311,417.352448 381.378967,419.050842 
	C381.297150,428.716675 381.395905,438.384003 381.326630,448.050018 
	C381.274536,455.317444 377.771606,459.085480 370.545532,459.789398 
	C368.726562,459.966614 366.883850,459.940643 365.052063,459.940491 
	C289.386322,459.934784 213.720581,459.895538 138.054886,459.934723 
	C125.664207,459.941132 119.796783,459.556763 120.555397,442.314148 
	C120.928413,433.835785 120.509842,425.322113 120.417900,416.824738 
	C120.410995,416.186676 120.149765,415.551392 119.956451,414.690826 
	C116.821800,414.403442 114.155418,416.019104 111.307159,416.584900 
	C88.084724,421.197601 66.681053,403.876709 66.667427,380.265961 
	C66.645798,342.766968 66.673531,305.267944 66.696335,267.306152 
M312.499939,439.657227 
	C326.998779,439.653778 341.498444,439.565857 355.995880,439.706421 
	C359.612640,439.741455 361.057892,438.582367 361.054230,434.853851 
	C360.996918,376.524170 360.993164,318.194305 361.106201,259.864716 
	C361.114838,255.410248 359.474609,254.281296 355.207489,254.288467 
	C285.711975,254.405411 216.216110,254.423508 146.720749,254.273239 
	C141.724167,254.262436 140.200256,255.538406 140.216614,260.685242 
	C140.399155,318.181213 140.334167,375.677979 140.338669,433.174530 
	C140.339172,439.638641 140.347153,439.657074 147.009735,439.657532 
	C201.839798,439.661469 256.669861,439.657990 312.499939,439.657227 
M413.148682,262.525299 
	C409.697937,257.600128 405.069000,254.638580 398.981903,254.421005 
	C394.494080,254.260590 389.991241,254.512161 385.504120,254.342117 
	C382.113861,254.213638 381.299774,255.816132 381.305267,258.892975 
	C381.375977,298.502411 381.321960,338.112061 381.424103,377.721344 
	C381.436127,382.386261 382.295837,386.998901 385.612030,390.732147 
	C390.541107,396.281219 398.022583,398.353271 404.617859,395.934143 
	C411.456635,393.425720 415.616394,387.275085 415.626892,379.154877 
	C415.672913,343.539551 415.637421,307.924133 415.658447,272.308746 
	C415.660339,269.075195 414.948853,266.051392 413.148682,262.525299 
M86.637032,269.341644 
	C86.538429,271.499969 86.354927,273.658234 86.353935,275.816589 
	C86.338501,309.298767 86.346077,342.780975 86.351631,376.263153 
	C86.351883,377.762085 86.281784,379.270325 86.417381,380.758423 
	C87.148293,388.780487 92.885391,395.480103 100.007072,396.705872 
	C108.433884,398.156281 115.321724,394.769470 118.662041,387.605591 
	C120.281830,384.131683 119.985397,380.436401 119.989944,376.799896 
	C120.030792,344.150665 119.987755,311.501282 120.046104,278.852081 
	C120.058296,272.033203 120.414291,265.215454 120.553383,258.395996 
	C120.596870,256.263550 120.251808,254.318146 117.379097,254.379028 
	C112.220535,254.488388 107.013901,254.142899 101.912666,254.729446 
	C93.769562,255.665726 88.641113,260.393188 86.637032,269.341644 
z"/>
<path fill="#ffffff" opacity="1.000000" stroke="none" 
	d="
M334.386597,103.567307 
	C357.733337,123.251450 372.716370,147.651077 378.878174,177.227859 
	C380.533203,185.172089 381.680786,193.280212 381.343140,201.495346 
	C381.068146,208.186432 377.488464,211.967499 370.819855,212.313660 
	C369.490417,212.382675 368.155273,212.350052 366.822754,212.350021 
	C289.366577,212.348816 211.910416,212.349594 134.454239,212.339584 
	C123.396530,212.338165 120.342606,209.515442 120.710678,198.449875 
	C122.010567,159.370056 138.143570,127.470116 168.490814,103.050117 
	C191.893570,84.218239 218.993958,75.796936 249.060013,75.519066 
	C275.054932,75.278809 299.176971,81.052353 321.393005,94.520569 
	C325.795563,97.189568 329.870392,100.399117 334.386597,103.567307 
M168.687927,130.191681 
	C154.755386,145.481003 145.920486,163.317703 142.373566,183.677048 
	C140.928329,191.972809 141.190231,192.028046 149.628128,192.031387 
	C218.958878,192.058884 288.289612,192.082352 357.620361,192.109055 
	C358.611847,192.109436 359.650146,192.274750 360.422607,190.969727 
	C359.515503,180.163666 356.923126,169.497452 352.187805,159.550369 
	C333.626740,120.560806 302.963318,99.079285 259.593933,96.150955 
	C224.395660,93.774330 193.810867,103.649849 168.687927,130.191681 
z"/>
<path fill="#ffffff" opacity="1.000000" stroke="none" 
	d="
M181.006836,55.027199 
	C183.894821,58.907360 186.703491,62.408463 189.212555,66.112503 
	C192.727875,71.302071 191.924377,77.644325 187.582993,80.823616 
	C183.089508,84.114296 177.024597,83.104256 173.041855,78.122589 
	C169.314590,73.460464 165.776215,68.642143 162.277893,63.803501 
	C158.138748,58.078506 158.695984,51.989491 163.537613,48.367424 
	C168.028259,45.007931 174.012726,46.285545 178.389603,51.565376 
	C179.235748,52.586067 179.994659,53.679062 181.006836,55.027199 
z"/>
<path fill="#ffffff" opacity="1.000000" stroke="none" 
	d="
M340.936157,51.476364 
	C343.008392,55.599545 342.664276,59.214920 340.289581,62.645893 
	C336.698944,67.833649 333.211975,73.101135 329.427246,78.144318 
	C325.742981,83.053604 319.776489,84.150063 315.367279,81.081268 
	C310.964569,78.016983 309.699982,72.139771 312.883575,66.979408 
	C316.190765,61.618809 319.862946,56.464504 323.637451,51.415821 
	C328.548523,44.846828 335.103638,44.831253 340.936157,51.476364 
z"/>
<path fill="#ffffff" opacity="1.000000" stroke="none" 
	d="
M265.754913,310.920105 
	C270.485535,311.572723 272.092773,309.396027 272.686615,305.432495 
	C274.261810,294.919312 276.152802,284.453735 277.790161,273.949310 
	C278.359558,270.296204 279.779846,268.136322 283.923584,268.658417 
	C287.017548,269.048248 290.225220,268.174652 294.063507,269.576996 
	C291.887177,282.998871 289.702301,296.473419 287.445892,310.389160 
	C292.674500,311.364166 297.506042,311.046417 302.249359,310.837708 
	C307.126587,310.623108 309.004395,312.515045 308.364136,317.242706 
	C308.231079,318.225067 308.228180,319.253387 308.351410,320.237183 
	C308.859711,324.295013 306.896667,325.508911 303.112976,325.338135 
	C298.456757,325.128021 293.781738,325.372711 289.118744,325.259888 
	C286.213898,325.189606 284.551697,325.927246 284.091309,329.252380 
	C283.089142,336.490784 281.672668,343.672913 280.375671,350.869019 
	C279.703796,354.596741 281.194702,356.043976 284.942963,355.890686 
	C289.601013,355.700195 294.273315,355.888000 298.938019,355.818573 
	C301.883942,355.774750 303.240814,357.139069 303.172516,360.046265 
	C303.137268,361.545166 303.024658,363.059601 303.181061,364.542328 
	C303.646545,368.955750 301.657440,370.484955 297.366821,370.267029 
	C292.214081,370.005310 287.032166,370.345825 281.875092,370.131622 
	C278.317505,369.983887 276.825104,371.452942 276.300537,374.894531 
	C274.772888,384.917175 272.959076,394.895752 271.350220,404.906525 
	C270.153656,412.351898 270.217773,412.393341 262.756134,412.331482 
	C260.300781,412.311127 257.781952,412.683655 254.804504,411.552856 
	C257.009857,398.101379 259.200623,384.738831 261.332031,371.738281 
	C260.177399,369.898438 258.717834,370.243439 257.457123,370.235199 
	C249.792282,370.185272 242.125885,370.276764 234.462387,370.161896 
	C231.245529,370.113678 229.728638,371.215698 229.216949,374.618530 
	C227.561829,385.625214 225.420410,396.558929 223.775253,407.566925 
	C223.210648,411.344879 221.583801,412.484894 217.894241,412.427795 
	C205.137695,412.230377 207.530777,412.958038 209.240372,401.980652 
	C210.846481,391.667755 212.590363,381.376282 214.417877,370.192474 
	C208.903534,370.192474 203.951904,369.946716 199.036453,370.263031 
	C194.319321,370.566620 192.651550,368.517822 193.060898,364.112762 
	C193.153061,363.120850 193.133286,362.112579 193.090179,361.115082 
	C192.929337,357.394409 194.454895,355.621857 198.407455,355.791748 
	C203.230194,355.999023 208.071808,355.723206 212.901550,355.827850 
	C216.002350,355.895020 217.297714,354.579468 217.744370,351.504425 
	C218.794754,344.272736 220.123123,337.079224 221.452957,329.891327 
	C222.040314,326.716614 221.174957,325.162384 217.687546,325.268555 
	C213.026489,325.410461 208.352921,325.156586 203.692932,325.314789 
	C200.136200,325.435516 198.669174,324.190460 198.621506,320.431549 
	C198.501114,310.937134 198.345840,310.937103 207.626892,310.924469 
	C211.626114,310.919037 215.647186,310.663910 219.618408,310.997467 
	C223.559235,311.328491 224.984436,309.384125 225.535583,305.972107 
	C227.230713,295.478058 229.119095,285.012787 230.633698,274.493286 
	C231.233139,270.329956 232.698776,268.466919 237.284439,268.578033 
	C247.013962,268.813782 247.018494,268.563873 245.472977,278.154572 
	C243.965744,287.507721 242.684509,296.905334 240.850845,306.193939 
	C240.083160,310.082825 241.384872,310.953766 244.796036,310.914581 
	C251.626816,310.836090 258.459320,310.910095 265.754913,310.920105 
M265.890289,325.330200 
	C257.918030,325.316223 249.945694,325.280365 241.973526,325.304016 
	C240.044724,325.309723 237.804184,324.884644 237.303177,327.746338 
	C235.711731,336.836487 233.782227,345.878143 232.935303,355.742065 
	C242.825134,355.742065 252.240128,355.767487 261.654785,355.722046 
	C263.695862,355.712219 264.384888,354.321106 264.690338,352.457672 
	C265.922516,344.941071 267.302826,337.448578 268.507935,329.927856 
	C268.782471,328.214813 269.266571,326.146698 265.890289,325.330200 
z"/>
</svg>

<svg xmlns="http://www.w3.org/2000/svg" xml:space="preserve" viewBox="0 0 496 496"><path d="M66.696 267.306c3.09-21.104 18.53-33.195 42.158-33.23 43.33-.064 86.662-.028 129.992-.029 50.665 0 101.329-.012 151.993.022 8.849.006 17.658.26 25.681 4.875 11.732 6.75 18.658 16.672 18.745 30.306.24 37.164-.329 74.338.242 111.495.33 21.397-21.411 42.47-46.91 35.038-2.066-.602-4.108-1.282-6.164-1.927-1.816 1.526-1.04 3.496-1.054 5.195-.082 9.666.017 19.333-.052 28.999-.052 7.267-3.555 11.035-10.781 11.74-1.82.177-3.662.15-5.494.15-75.666-.005-151.331-.044-226.997-.005-12.39.006-18.258-.378-17.5-17.62.373-8.48-.045-16.993-.137-25.49-.007-.638-.268-1.274-.462-2.134-3.134-.288-5.8 1.328-8.649 1.894-23.222 4.613-44.626-12.708-44.64-36.319-.021-37.499.007-74.998.03-112.96M312.5 439.657c14.499-.003 28.998-.091 43.496.05 3.617.034 5.062-1.125 5.058-4.853-.057-58.33-.06-116.66.052-174.99.009-4.454-1.631-5.583-5.899-5.576-69.495.117-138.99.136-208.486-.015-4.997-.01-6.52 1.265-6.504 6.412.182 57.496.117 114.993.122 172.49 0 6.464.008 6.482 6.67 6.483 54.83.003 109.66 0 165.49 0m100.65-177.133c-3.451-4.925-8.08-7.886-14.167-8.104-4.488-.16-8.99.091-13.478-.079-3.39-.128-4.204 1.474-4.199 4.551.071 39.61.017 79.22.12 118.828.011 4.665.87 9.278 4.187 13.011 4.93 5.55 12.41 7.621 19.006 5.202 6.839-2.508 10.998-8.659 11.009-16.78.046-35.614.01-71.23.031-106.845.002-3.234-.71-6.258-2.51-9.784m-326.511 6.817c-.099 2.158-.282 4.316-.283 6.475-.015 33.482-.008 66.964-.002 100.446 0 1.5-.07 3.007.065 4.495.731 8.022 6.468 14.722 13.59 15.948 8.427 1.45 15.315-1.937 18.655-9.1 1.62-3.474 1.323-7.17 1.328-10.806.04-32.65-.002-65.299.056-97.948.012-6.819.368-13.637.507-20.456.044-2.132-.301-4.078-3.174-4.017-5.158.11-10.365-.236-15.466.35-8.143.937-13.272 5.664-15.276 14.613zM334.387 103.567c23.346 19.684 38.33 44.084 44.491 73.66 1.655 7.945 2.803 16.053 2.465 24.268-.275 6.691-3.855 10.472-10.523 10.819-1.33.069-2.665.036-3.997.036-77.456-.001-154.913 0-232.369-.01-11.057-.002-14.111-2.825-13.743-13.89 1.3-39.08 17.433-70.98 47.78-95.4 23.403-18.832 50.503-27.253 80.569-27.53 25.995-.241 50.117 5.532 72.333 19 4.403 2.67 8.477 5.88 12.994 9.047m-165.7 26.625c-13.932 15.289-22.767 33.126-26.313 53.485-1.446 8.296-1.184 8.351 7.254 8.354 69.33.028 138.662.051 207.992.078.992 0 2.03.166 2.803-1.14-.907-10.805-3.5-21.472-8.235-31.419-18.561-38.99-49.225-60.47-92.594-63.399-35.198-2.377-65.783 7.499-90.906 34.04zM181.007 55.027c2.888 3.88 5.696 7.381 8.206 11.086 3.515 5.19 2.711 11.531-1.63 14.71-4.493 3.291-10.558 2.281-14.541-2.7-3.727-4.663-7.266-9.48-10.764-14.32-4.14-5.724-3.582-11.814 1.26-15.436 4.49-3.36 10.475-2.081 14.852 3.198.846 1.021 1.605 2.114 2.617 3.462zM340.936 51.476c2.072 4.124 1.728 7.739-.646 11.17-3.591 5.188-7.078 10.455-10.863 15.498-3.684 4.91-9.65 6.006-14.06 2.937-4.402-3.064-5.667-8.941-2.483-14.102 3.307-5.36 6.979-10.514 10.753-15.563 4.912-6.57 11.467-6.585 17.3.06z"/><path d="M265.755 310.92c4.73.653 6.338-1.524 6.932-5.488 1.575-10.513 3.466-20.978 5.103-31.483.57-3.653 1.99-5.813 6.134-5.29 3.094.39 6.301-.484 10.14.918l-6.618 40.812c5.228.975 10.06.657 14.803.449 4.878-.215 6.755 1.677 6.115 6.405a11.71 11.71 0 0 0-.013 2.994c.509 4.058-1.454 5.272-5.238 5.101-4.656-.21-9.331.035-13.994-.078-2.905-.07-4.567.667-5.028 3.992-1.002 7.239-2.418 14.42-3.715 21.617-.672 3.728.819 5.175 4.567 5.022 4.658-.19 9.33-.003 13.995-.072 2.946-.044 4.303 1.32 4.235 4.227-.036 1.5-.148 3.014.008 4.496.466 4.414-1.524 5.943-5.814 5.725-5.153-.262-10.335.079-15.492-.135-3.557-.148-5.05 1.32-5.574 4.763-1.528 10.022-3.342 20-4.95 30.012-1.197 7.445-1.133 7.486-8.595 7.424-2.455-.02-4.974.353-7.951-.778l6.527-39.815c-1.155-1.84-2.614-1.495-3.875-1.503-7.665-.05-15.331.042-22.995-.073-3.216-.048-4.733 1.054-5.245 4.457-1.655 11.006-3.797 21.94-5.442 32.948-.564 3.778-2.191 4.918-5.88 4.86-12.757-.197-10.364.531-8.655-10.446 1.606-10.313 3.35-20.605 5.178-31.789-5.514 0-10.466-.245-15.382.071-4.717.304-6.384-1.745-5.975-6.15.092-.992.072-2 .03-2.998-.162-3.72 1.364-5.493 5.316-5.323 4.823.207 9.665-.069 14.495.036 3.1.067 4.396-1.249 4.842-4.324 1.05-7.231 2.38-14.425 3.709-21.613.587-3.174-.278-4.729-3.765-4.622-4.662.141-9.335-.112-13.995.046-3.557.12-5.024-1.125-5.071-4.883-.12-9.495-.276-9.495 9.005-9.508 4-.005 8.02-.26 11.991.073 3.941.331 5.366-1.613 5.918-5.025 1.695-10.494 3.583-20.96 5.098-31.479.6-4.163 2.065-6.026 6.65-5.915 9.73.236 9.734-.014 8.189 9.577-1.507 9.353-2.788 18.75-4.622 28.039-.768 3.889.534 4.76 3.945 4.72 6.83-.078 13.663-.004 20.959.006m.135 14.41c-7.972-.014-15.944-.05-23.916-.026-1.93.006-4.17-.42-4.67 2.442-1.592 9.09-3.522 18.132-4.369 27.996 9.89 0 19.305.025 28.72-.02 2.04-.01 2.73-1.4 3.035-3.264 1.233-7.517 2.613-15.01 3.818-22.53.274-1.713.759-3.781-2.618-4.598z"/></svg>
